X: 59
M:4/4
L:1/8
K:G
g2 fg afed|edef gdBd|g2 fg afed|edef g2 (3def|
gbaf edef|gfge dBAB|cBcd efge|dcBGA2 G2||

